X:005
T:Billy Rush's Jig
B:NFID.182a
005billy_r
S:DOD
N:Almost identical to the Jerry O'Brien setting in "Irish Folk
Dance Music" (in the webABC misc folder)
L:1/8
M:6/8
R:jig
Q:320
K:A
E>FE ECE|F>AA BAB|cec d/f/dB|c>BA BAF|
E>FE ECE|F>AA BAB|c>ec BAB|1 cAA A3:|2 c>AA A2||
B|c>ee e>cA|d>cB cBA|B>cB BAB|c>ec dcB|
c>ee ecA|d>cB cAF|E>FE ECE|1 F>AA A2:|2 F>AA B>AF||

%%%

